ix/music-square_broken.svg

<svg viewBox="0 0 24 24" fill="none" xmlns="http://www.w3.org/2000/svg" height="1em" width="1em">
  <path d="M2 12.99V15C2 20 4 22 9 22H15C20 22 22 20 22 15V9C22 4 20 2 15 2H9C4 2 2 4 2 9" stroke="#292D32" stroke-width="1.5" stroke-linecap="round" stroke-linejoin="round"/>
  <path d="M8.41962 17.11C9.2867 17.11 9.98962 16.4071 9.98962 15.54C9.98962 14.6729 9.2867 13.97 8.41962 13.97C7.55253 13.97 6.84961 14.6729 6.84961 15.54C6.84961 16.4071 7.55253 17.11 8.41962 17.11Z" stroke="#292D32" stroke-width="1.5" stroke-linecap="round" stroke-linejoin="round"/>
  <path d="M15.75 14.49V8.34997C15.75 7.03997 14.93 6.86002 14.1 7.09002L10.96 7.95001C10.39 8.11001 10 8.56002 10 9.21002V10.31V11.05V15.55" stroke="#292D32" stroke-width="1.5" stroke-linecap="round" stroke-linejoin="round"/>
  <path d="M14.1794 16.0599C15.0465 16.0599 15.7494 15.357 15.7494 14.4899C15.7494 13.6228 15.0465 12.9199 14.1794 12.9199C13.3123 12.9199 12.6094 13.6228 12.6094 14.4899C12.6094 15.357 13.3123 16.0599 14.1794 16.0599Z" stroke="#292D32" stroke-width="1.5" stroke-linecap="round" stroke-linejoin="round"/>
  <path d="M9.99023 11.04L15.7502 9.46997" stroke="#292D32" stroke-width="1.5" stroke-linecap="round" stroke-linejoin="round"/>
</svg>

<svg viewBox="0 0 24 24" fill="none" xmlns="http://www.w3.org/2000/svg" height="1em" width="1em">
  <path d="M2 12.99V15c0 5 2 7 7 7h6c5 0 7-2 7-7V9c0-5-2-7-7-7H9C4 2 2 4 2 9" stroke="#292D32" stroke-width="1.5" stroke-linecap="round" stroke-linejoin="round"/>
  <path d="M8.42 17.11a1.57 1.57 0 1 0 0-3.14 1.57 1.57 0 0 0 0 3.14Z" stroke="#292D32" stroke-width="1.5" stroke-linecap="round" stroke-linejoin="round"/>
  <path d="M15.75 14.49V8.35c0-1.31-.82-1.49-1.65-1.26l-3.14.86c-.57.16-.96.61-.96 1.26v6.34" stroke="#292D32" stroke-width="1.5" stroke-linecap="round" stroke-linejoin="round"/>
  <path d="M14.18 16.06a1.57 1.57 0 1 0 0-3.14 1.57 1.57 0 0 0 0 3.14Zm-4.19-5.02 5.76-1.57" stroke="#292D32" stroke-width="1.5" stroke-linecap="round" stroke-linejoin="round"/>
</svg>
